X: 20922
T: COLUMBIAN SETT (tune 2)
C:
%R: jig
B: Elias Howe "The Musician's Companion" 1843 p.92 #2
S: http://imslp.org/wiki/The_Musician's_Companion_(Howe,_Elias)
Z: 2015 John Chambers <jc:trillian.mit.edu>
N: Initial rest added to 2nd strain to fix the rhythm.
M: 6/8
L: 1/8
K: F
% - - - - - - - - - - - - - - - - - - - - - - - - - - - - -
V: 1 name="2"
C |\
F2F A2A | c3 BAG | F2F A2A | G3 CCC |\
F2F A2A | c3 BAG | Fdc BAG | F3- F2 H|]
z |\
cAf cAf | dBa bgf | egb cde | faf c2c |\
cAf cAf | dBa bgf | egb cde | f3- "^D.C."f2 |]
f/e/ |\
d^cd f2a | e3 gfe | d^cd e2c | A3 f2e |\
d^cd f2a | e3 gfe | d^cd e2c | d3- "^D.C."d2 |]
% - - - - - - - - - - Dance description - - - - - - - - - -
%%begintext align
%% First two forward and back,
%% cross over,
%% chassa de chassa,
%% cross back,
%% balance four,
%% ladies chain,
%% promenade four,
%% next two forward, &c.
%%endtext
% - - - - - - - - - - - - - - - - - - - - - - - - - - - - -
%%sep 1 1 300

%%sep 1 1 500

